X: 186
T: Bai Yueer
%%abc-version 2.0
%%abcx-abcm2ps-target-version 5.9.1 (29 Sep 2008)
%%abc-creator hum2abc beta
%%abcx-conversion-date 2013/10/02 07:52:29
%%abc-edited-by Helmut Schaffrath
%%humdrum-veritas 1480629602
%%humdrum-veritas-data 1178779272
%%continueall 1
%%barnumbers 0
L: 1/16
M: 2/4
K: G
B2B4B2 [I:setbarnb 1]| 
d2 B A B d B A | 
G4B2 d2 | 
B2 B A G D E D | 
B,8 | 
B2 B2 B d B A | 
B2 E DB,4 | 
B2 B2 B d B A | 
B2 E DB,4 | 
B2 E DB,4 | 
B2B4d d | 
B d B A2< G2 E | 
B2 B B B2 E2 | 
G2 G E D2 D2- | 
D4z4 |]  



